src/img/black-bishop.svg

<svg xmlns="http://www.w3.org/2000/svg" class="chess piece black bishop" width="45" height="45" viewBox="0 0 45 45" preserveAspectRatio="xMinYMin meet"><g fill="none" fill-rule="evenodd" stroke="#000" stroke-width="1.5" stroke-linecap="round" stroke-linejoin="round"><g fill="#000" stroke-linecap="butt"><path d="M9 36c3.39-.97 10.11.43 13.5-2 3.39 2.43 10.11 1.03 13.5 2 0 0 1.65.54 3 2-.68.97-1.65.99-3 .5-3.39-.97-10.11.46-13.5-1-3.39 1.46-10.11.03-13.5 1-1.354.49-2.323.47-3-.5 1.354-1.94 3-2 3-2z"/><path d="M15 32c2.5 2.5 12.5 2.5 15 0 .5-1.5 0-2 0-2 0-2.5-2.5-4-2.5-4 5.5-1.5 6-11.5-5-15.5-11 4-10.5 14-5 15.5 0 0-2.5 1.5-2.5 4 0 0-.5.5 0 2z"/><path d="M25 8a2.5 2.5 0 1 1-5 0 2.5 2.5 0 1 1 5 0z"/></g><path d="M17.5 26h10M15 30h15m-7.5-14.5v5M20 18h5" stroke="#fff" stroke-linejoin="miter"/></g></svg>

<?xml version="1.0" encoding="UTF-8" standalone="no"?>
<!DOCTYPE svg PUBLIC "-//W3C//DTD SVG 1.1//EN" "http://www.w3.org/Graphics/SVG/1.1/DTD/svg11.dtd">
<svg xmlns="http://www.w3.org/2000/svg" version="1.1" width="45" height="45">
  <g style="opacity:1; fill:none; fill-rule:evenodd; fill-opacity:1; stroke:#000000; stroke-width:1.5; stroke-linecap:round; stroke-linejoin:round; stroke-miterlimit:4; stroke-dasharray:none; stroke-opacity:1;">
    <g style="fill:#000000; stroke:#000000; stroke-linecap:butt;">
      <path
        d="M 9,36 C 12.39,35.03 19.11,36.43 22.5,34 C 25.89,36.43 32.61,35.03 36,36 C 36,36 37.65,36.54 39,38 C 38.32,38.97 37.35,38.99 36,38.5 C 32.61,37.53 25.89,38.96 22.5,37.5 C 19.11,38.96 12.39,37.53 9,38.5 C 7.646,38.99 6.677,38.97 6,38 C 7.354,36.06 9,36 9,36 z" />
      <path
        d="M 15,32 C 17.5,34.5 27.5,34.5 30,32 C 30.5,30.5 30,30 30,30 C 30,27.5 27.5,26 27.5,26 C 33,24.5 33.5,14.5 22.5,10.5 C 11.5,14.5 12,24.5 17.5,26 C 17.5,26 15,27.5 15,30 C 15,30 14.5,30.5 15,32 z" />
      <path
        d="M 25 8 A 2.5 2.5 0 1 1  20,8 A 2.5 2.5 0 1 1  25 8 z" />
    </g>
    <path
       d="M 17.5,26 L 27.5,26 M 15,30 L 30,30 M 22.5,15.5 L 22.5,20.5 M 20,18 L 25,18"
       style="fill:none; stroke:#ffffff; stroke-linejoin:miter;" />
  </g>
</svg>
